X:1
T:Polka e. Tor Homleid (reinl\"ander)
R:shottish, reinl=E4nder
Z:2000 Brian Wilson
Z:From a Niklas Roswell CD
M:2/4
L:1/16
K:A
|: "A"c2cB c2cB | "A"c2cB BAAc |1,3 "E7"efed BcdB | c2cB "A"A2E2 \
                              :|2,4 "A"efec "E7"edBG | "A"A2"E"B2 "A"A4 :|
|::: "A"a~gae "D"b2"A"a2 | "A"cdef fec2 | "E7"BABc dBGB | "A"A2"E"B2 "A"A4 :::|
